resources/svg/mood-laugh.svg

<svg width="15" height="15" viewBox="0 0 15 15" fill="none" xmlns="http://www.w3.org/2000/svg">
<path d="M7.5 10C6.25369 10 5.26738 9.16489 5.04642 8H9.95358C9.73262 9.16489 8.74631 10 7.5 10Z" fill="black"/>
<path fill-rule="evenodd" clip-rule="evenodd" d="M0 7.5C0 3.35786 3.35786 0 7.5 0C11.6421 0 15 3.35786 15 7.5C15 11.6421 11.6421 15 7.5 15C3.35786 15 0 11.6421 0 7.5ZM4 6H5V5H4V6ZM4.5 7C4.36739 7 4.24021 7.05268 4.14645 7.14645C4.05268 7.24021 4 7.36739 4 7.5C4 9.47066 5.52934 11 7.5 11C9.47066 11 11 9.47066 11 7.5C11 7.36739 10.9473 7.24021 10.8536 7.14645C10.7598 7.05268 10.6326 7 10.5 7H4.5ZM11 6H10V5H11V6Z" fill="black"/>
</svg>

<svg viewBox="0 0 15 15" fill="none" xmlns="http://www.w3.org/2000/svg" fill="currentColor"><path d="M7.5 10c-1.246 0-2.233-.835-2.454-2h4.908c-.221 1.165-1.208 2-2.454 2z" fill="currentColor"/><path fill-rule="evenodd" clip-rule="evenodd" d="M0 7.5a7.5 7.5 0 1115 0 7.5 7.5 0 01-15 0zM4 6h1V5H4v1zm.5 1a.5.5 0 00-.5.5C4 9.47 5.53 11 7.5 11S11 9.47 11 7.5a.5.5 0 00-.5-.5h-6zM11 6h-1V5h1v1z" fill="currentColor"/></svg>
